src/assets/duotone/UserOctagon.svg

<svg width="24" height="24" viewBox="0 0 24 24"  xmlns="http://www.w3.org/2000/svg">
<path opacity="0.4" d="M21.0802 8.58003V15.42C21.0802 16.54 20.4802 17.58 19.5102 18.15L13.5702 21.58C12.6002 22.14 11.4002 22.14 10.4202 21.58L4.48016 18.15C3.51016 17.59 2.91016 16.55 2.91016 15.42V8.58003C2.91016 7.46003 3.51016 6.41999 4.48016 5.84999L10.4202 2.42C11.3902 1.86 12.5902 1.86 13.5702 2.42L19.5102 5.84999C20.4802 6.41999 21.0802 7.45003 21.0802 8.58003Z" />
<path d="M11.9999 11.9998C13.2867 11.9998 14.3299 10.9566 14.3299 9.6698C14.3299 8.38298 13.2867 7.33984 11.9999 7.33984C10.7131 7.33984 9.66992 8.38298 9.66992 9.6698C9.66992 10.9566 10.7131 11.9998 11.9999 11.9998Z" />
<path d="M14.6802 16.6599C15.4902 16.6599 15.9602 15.7599 15.5102 15.0899C14.8302 14.0799 13.5102 13.3999 12.0002 13.3999C10.4902 13.3999 9.17016 14.0799 8.49016 15.0899C8.04016 15.7599 8.51016 16.6599 9.32016 16.6599H14.6802Z" />
</svg>

<?xml version="1.0" encoding="UTF-8"?>
<svg width="24" height="24" viewBox="0 0 24 24" xmlns="http://www.w3.org/2000/svg">
 <path d="m21.08 8.58v6.84c0 1.12-0.6 2.16-1.57 2.73l-5.94 3.43c-0.97 0.56-2.17 0.56-3.15 0l-5.94-3.43c-0.97-0.56-1.57-1.6-1.57-2.73v-6.84c0-1.12 0.6-2.16 1.57-2.73l5.94-3.43c0.97-0.56 2.17-0.56 3.15 0l5.94 3.43c0.97 0.57 1.57 1.6 1.57 2.73z" opacity=".4"/>
 <path d="m12 12c1.2868 0 2.33-1.0432 2.33-2.33 0-1.2868-1.0432-2.33-2.33-2.33s-2.33 1.0431-2.33 2.33c0 1.2868 1.0432 2.33 2.33 2.33z"/>
 <path d="m14.68 16.66c0.81 0 1.28-0.9 0.83-1.57-0.68-1.01-2-1.69-3.51-1.69s-2.83 0.68-3.51 1.69c-0.45 0.67 0.02 1.57 0.83 1.57h5.36z"/>
</svg>
